src/assets/icons/file-arrow-up.svg

<svg width="14" height="14" viewBox="0 0 14 14" fill="none" xmlns="http://www.w3.org/2000/svg">
<g id="file-arrow-up">
<path id="Vector" fill-rule="evenodd" clip-rule="evenodd" d="M1.60001 2.2C1.60001 0.988629 2.58864 0 3.80001 0H7.40001C7.55914 0 7.71175 0.0632141 7.82427 0.175736L12.2243 4.57574C12.3368 4.68826 12.4 4.84087 12.4 5V11.8C12.4 13.0114 11.4114 14 10.2 14H3.80001C2.58864 14 1.60001 13.0114 1.60001 11.8V2.2ZM3.80001 1.2C3.25138 1.2 2.80001 1.65137 2.80001 2.2V11.8C2.80001 12.3486 3.25138 12.8 3.80001 12.8H10.2C10.7486 12.8 11.2 12.3486 11.2 11.8V5.6H7.40001C7.06864 5.6 6.80001 5.33137 6.80001 5V1.2H3.80001ZM8.00001 2.04853L10.3515 4.4H8.00001V2.04853ZM7.42427 6.97574C7.18996 6.74142 6.81006 6.74142 6.57574 6.97574L4.97574 8.57574C4.74143 8.81005 4.74143 9.18995 4.97574 9.42426C5.21006 9.65858 5.58996 9.65858 5.82427 9.42426L6.40001 8.84853V11.4C6.40001 11.7314 6.66864 12 7.00001 12C7.33138 12 7.60001 11.7314 7.60001 11.4V8.84853L8.17574 9.42426C8.41006 9.65858 8.78996 9.65858 9.02427 9.42426C9.25858 9.18995 9.25858 8.81005 9.02427 8.57574L7.42427 6.97574Z" fill="black"/>
</g>
</svg>

<svg xmlns="http://www.w3.org/2000/svg" fill="none" viewBox="0 0 14 14"><path fill="#000" fill-rule="evenodd" d="M1.6 2.2C1.6.989 2.589 0 3.8 0h3.6a.6.6 0 0 1 .424.176l4.4 4.4A.6.6 0 0 1 12.4 5v6.8c0 1.211-.989 2.2-2.2 2.2H3.8c-1.211 0-2.2-.989-2.2-2.2zm2.2-1c-.549 0-1 .451-1 1v9.6c0 .549.451 1 1 1h6.4c.549 0 1-.451 1-1V5.6H7.4a.6.6 0 0 1-.6-.6V1.2zm4.2.849L10.351 4.4H8zm-.576 4.927a.6.6 0 0 0-.848 0l-1.6 1.6a.6.6 0 0 0 .848.848L6.4 8.85V11.4a.6.6 0 1 0 1.2 0V8.849l.576.575a.6.6 0 1 0 .848-.848z" clip-rule="evenodd"/></svg>
